!!!SOCIAL_FUNCTION:	songs concerning the sacred stones
!!!PDT:	1918

Specific Region: Dakotas, Minnesota, Montana, Nebraska
!!!REG: Dakotas and Montana
!!!LING_GROUP: Siouan
!!!LANG: Tone
!!!OTL@ENG: A Sacred Stone Nation Is Speaking
!!!ONM: No. 64
**kern
*Imale
*clefF4
*k[b-e-]
*M5/8
*MM84
8d
8d
=1
([4d
16d]
16c)
8c
8c
=2
([4c
16c]
16B-)
8B-
8B-
=3
[4.B-
4B-_
=4||
*M3/8
(4.B-]
=5
8B-)
8B-
8B-
=6||
*M5/8
([4d
16d]
16c)
8c
8c
=7
([4c
16c]
16B-)
8B-
8B-
=8
[4.B-
4B-_
=9||
*M3/8
4.B-]
=10||
*M4/8
8c
8c
8c
8c
=11||
*M3/8
8c
8c
8c
=12
4.B-
=13
4.G
=14
4.G
=15
4.B-
=16
4.c
=17
4.B-
=18||
*M5/8
([4B-
16B-]
16G)
8F
8E
=
[4.F
4.F_
=19
4.F]
8C
8C
=20
4.D
8C
8C
=21
4.C
8BB-
8BB-
=22
[4.BB-
4BB-]
==
*-
!!!CNT: Native American -- Sioux
!!!MRD: 1911/07//-1914///
!!!OCL: Frances Densmore
!!!YOR1: Teton Sioux Music, Bulletin 61,
!!!YOR2: Bureau of American Ethnology, Smithsonian Institution
!!!PPR: Government Printing Office
!!!PPP: Washington, D.C.
!!!PDT: 1918///
!!!ENC: Craig Stuart Sapp
!!!END: 2002/03/25/
!!!EEV: 2002/03/31/
!!!AGN: Song of Personal Dreams/Song Concerning the Sacred Stones
!!!MPN@@SIO: Waking'yan-wata'kpe
!!!MPN@ENG: Charging Thunder
!!!TXO: Teton Sioux
!!!MLC: Standing Rock Reservation, South Dakota, United States of America
!!!ARL: 45.9/-100.7#
!!!catalog: Catalogue No. 566
!!!PPG: 220
!!!EFL: 64/245
!!!VTS: 2021265943
